svg/vk.svg

<svg width="26" height="16" viewBox="0 0 26 16" fill="none" xmlns="http://www.w3.org/2000/svg">
<path fill-rule="evenodd" clip-rule="evenodd" d="M13.8833 15.9917C14.7488 15.9917 14.7488 14.7115 14.7488 14.2149C14.7488 13.3264 15.6142 12.438 16.4797 12.438C17.3452 12.438 18.8295 13.9616 19.9416 15.1033C20.8071 15.9917 20.8071 15.9917 21.6726 15.9917C22.5381 15.9917 24.269 15.9917 24.269 15.9917C24.269 15.9917 26 15.9242 26 14.2149C26 13.6596 25.4071 12.7179 23.4036 10.6611C21.6726 8.88428 20.7846 9.80203 23.4036 6.219C24.9986 4.03702 26.1592 2.06027 25.9602 1.48989C25.7698 0.945288 21.3333 0.0781817 20.8071 0.888428C19.0762 3.55371 18.7585 4.20671 18.2107 5.33057C17.3452 7.10743 17.2595 7.99585 16.4797 7.99585C15.693 7.99585 15.6142 6.27142 15.6142 5.33057C15.6142 2.39343 16.0288 0.31628 14.7488 0C14.7488 0 13.0178 0 12.1523 0C10.7589 0 9.55589 0.888428 9.55589 0.888428C9.55589 0.888428 8.48183 1.74843 8.69041 1.77686C8.94833 1.81239 10.4214 1.40905 10.4214 2.66528C10.4214 3.55371 10.4214 4.44214 10.4214 4.44214C10.4214 4.44214 10.4292 7.99585 9.55589 7.99585C8.69041 7.99585 6.95945 4.44214 5.22849 1.77686C4.54909 0.731176 4.36301 0.888428 3.49754 0.888428C2.56974 0.888428 1.76744 0.925742 0.901097 0.925742C0.0356178 0.925742 -0.0751636 1.49167 0.0356178 1.77686C1.76658 6.219 3.01027 9.00866 6.29909 12.5233C9.31529 15.7474 11.3301 15.9189 13.0178 15.9917C13.4505 16.0104 13.0178 15.9917 13.8833 15.9917Z" fill="#54769B"/>
</svg>

<svg fill="none" xmlns="http://www.w3.org/2000/svg" viewBox="0 0 26 16"><path fill-rule="evenodd" clip-rule="evenodd" d="M13.883 15.992c.866 0 .866-1.28.866-1.777 0-.889.865-1.777 1.73-1.777.866 0 2.35 1.524 3.463 2.665.865.889.865.889 1.73.889h2.597S26 15.924 26 14.215c0-.555-.593-1.497-2.596-3.554-1.731-1.777-2.62-.859 0-4.442 1.595-2.182 2.755-4.159 2.556-4.73-.19-.544-4.627-1.41-5.153-.6-1.73 2.665-2.048 3.318-2.596 4.442-.866 1.776-.951 2.665-1.731 2.665-.787 0-.866-1.725-.866-2.665 0-2.938.415-5.015-.865-5.331h-2.597C10.76 0 9.556.888 9.556.888s-1.074.86-.866.889c.258.035 1.731-.368 1.731.888v1.777s.008 3.554-.865 3.554c-.866 0-2.597-3.554-4.328-6.22C4.55.732 4.363.889 3.498.889 2.57.888 1.768.926.9.926c-.865 0-.976.566-.865.85C1.766 6.22 3.01 9.01 6.299 12.524c3.016 3.224 5.031 3.396 6.719 3.469.432.018 0 0 .865 0z" fill="#54769B"/></svg>
